X: 1
T: Stumpie
M: 4/4
L: 1/8
R: strathspey
K: Amaj
c>ea2 a/g/f/e/a2|c>ea2 b<BB>d|c>ea2 a/g/f/e/a2|c>eB>d c<AA2:|
|:c>ee>c d>ff>d|c>ee>c d<BB>d|c>ee>c d>ff>d|c>eB>d c<AA2:|
